!!!OTL: WAS FANG ICH ARMER TEUFEL AN
!!!ARE: Europa, Mitteleuropa, Deutschland
!!!SCT: B0566
!!!YEM: Copyright 1995, estate of Helmut Schaffrath.
**kern
*ICvox
*Ivox
!! Mixed meters:  3/4; 4/4
*M3/4
*k[b-]
*F:
{8f
=1
8f
8a
4.cc
8a
=2
8.a
16g
4.g}
{8g
=3
8g
8dd
4.cc
8b-
=4
4b-
4a
8r}
{8f
=5
8f
8a
4.cc
8a
=6
8.a
16g
4.g}
{8g
=7
8g
8dd
4.cc
8b-
=8
4b-
4a
8r}
{8cc
=9
8.cc
16cc
8ff
8cc
8a
8f
=10
8.cc
16cc
4.cc}
{8cc
=11
8.cc
16cc
8ff
8cc
8a
8f
=12
8.cc
16cc
4.cc}
{8cc
=13
*M4/4
4.cc
8a
4.dd
8cc
=14
4cc
4b-
4.r}
{8b-
=15
4.b-
8g
4.cc
8e
=16
4g
4f
4.r}
==
!!!AGN: Studenten -, Burschenschafts -, Wander - Lied
!!!ONB: ESAC (Essen Associative Code) Database: BOEHME
!!!AMT: irregular
!!!AIN: vox
!!!EED: Helmut Schaffrath
!!!EEV: 1.0
*-
